assets/img/img-pages/icon-property/body-scale1.svg

<svg width="64" height="64" viewBox="0 0 64 64" fill="none" xmlns="http://www.w3.org/2000/svg">
<g clip-path="url(#clip0)">
<path d="M32 63.9976C32.6904 63.9976 33.25 63.4379 33.25 62.7476C33.25 62.0572 32.6904 61.4976 32 61.4976C31.3096 61.4976 30.75 62.0572 30.75 62.7476C30.75 63.4379 31.3096 63.9976 32 63.9976Z" fill="#14213D"/>
<path d="M32 63.9976C32.6904 63.9976 33.25 63.4379 33.25 62.7476C33.25 62.0572 32.6904 61.4976 32 61.4976C31.3096 61.4976 30.75 62.0572 30.75 62.7476C30.75 63.4379 31.3096 63.9976 32 63.9976Z" stroke="white"/>
<path d="M55.234 0H8.76827C3.93402 0 0.0020204 3.96662 0.0020204 8.80087L2.50615 55.2679C2.52527 60.0859 6.45077 64 11.2731 64H26.387C27.0786 64 27.6395 63.4393 27.6395 62.7475C27.6395 62.0558 27.0788 61.495 26.387 61.495H11.2731C7.82015 61.495 5.01002 58.6521 5.01002 55.199L2.50615 8.73487C2.52352 5.29662 5.32602 2.50487 8.76827 2.50487H55.234C58.6763 2.50487 61.4788 5.29662 61.4961 8.73487L58.9923 55.1991C58.9923 58.6521 56.1821 61.4951 52.7291 61.4951H37.6153C36.9236 61.4951 36.3628 62.0559 36.3628 62.7476C36.3628 63.4394 36.9236 64 37.6153 64H52.7291C57.5515 64 61.477 60.0859 61.4961 55.2679L64.0003 8.80075C64.0003 3.96662 60.0683 0 55.234 0Z" fill="#14213D"/>
<path d="M55.234 0H8.76827C3.93402 0 0.0020204 3.96662 0.0020204 8.80087L2.50615 55.2679C2.52527 60.0859 6.45077 64 11.2731 64H26.387C27.0786 64 27.6395 63.4393 27.6395 62.7475C27.6395 62.0558 27.0788 61.495 26.387 61.495H11.2731C7.82015 61.495 5.01002 58.6521 5.01002 55.199L2.50615 8.73487C2.52352 5.29662 5.32602 2.50487 8.76827 2.50487H55.234C58.6763 2.50487 61.4788 5.29662 61.4961 8.73487L58.9923 55.1991C58.9923 58.6521 56.1821 61.4951 52.7291 61.4951H37.6153C36.9236 61.4951 36.3628 62.0559 36.3628 62.7476C36.3628 63.4394 36.9236 64 37.6153 64H52.7291C57.5515 64 61.477 60.0859 61.4961 55.2679L64.0003 8.80075C64.0003 3.96662 60.0683 0 55.234 0Z" stroke="white"/>
<path d="M19.2312 28.7021H44.7687C45.266 28.7021 45.7162 28.4079 45.9158 27.9524L51.3493 15.5531C51.5795 15.0281 51.4237 14.4139 50.9713 14.0619C48.5096 12.1468 41.6957 7.68927 32.0477 7.66064C22.3537 7.66064 15.5072 12.1339 13.0288 14.0619C12.5765 14.4139 12.4207 15.0281 12.6508 15.5531L18.0843 27.9524C18.2837 28.4079 18.734 28.7021 19.2312 28.7021ZM31.9982 22.8543C33.3243 22.8543 34.6106 23.1296 35.718 23.6504C37.029 24.2669 37.9807 25.1721 38.4456 26.1973H25.5521C26.4278 24.268 29.011 22.8543 31.9982 22.8543ZM20.2661 12.6674L21.2435 14.7409C21.457 15.194 21.9073 15.4596 22.3771 15.4596C22.556 15.4596 22.7378 15.4211 22.9102 15.3398C23.536 15.0448 23.8041 14.2985 23.5091 13.6729L22.6013 11.747C24.9313 10.9418 27.666 10.3284 30.7476 10.1946V12.3365C30.7476 13.0283 31.3083 13.589 32.0001 13.589C32.6918 13.589 33.2526 13.0283 33.2526 12.3365V10.1949C36.3168 10.3279 39.039 10.9349 41.3606 11.7336L40.5503 13.7866C40.2965 14.43 40.6121 15.1575 41.2556 15.4115C41.4065 15.4711 41.562 15.4993 41.715 15.4993C42.2141 15.4993 42.686 15.1988 42.8803 14.7064L43.6921 12.6495C45.841 13.601 47.5193 14.651 48.6553 15.4605L43.9502 26.1974H41.093C40.5901 24.1956 39.0482 22.4485 36.7842 21.3838C35.3456 20.7071 33.6906 20.3494 31.9983 20.3494C30.2201 20.3494 28.5637 20.7365 27.1562 21.4095L25.433 17.7531C25.138 17.1275 24.3921 16.8591 23.766 17.1541C23.1403 17.4491 22.8721 18.1954 23.167 18.821L25.0422 22.7999C23.9825 23.7421 23.2312 24.9048 22.9077 26.1975H20.05L15.3448 15.4605C16.4748 14.655 18.1383 13.6136 20.2661 12.6674Z" fill="#14213D"/>
<path d="M19.2312 28.7021H44.7687C45.266 28.7021 45.7162 28.4079 45.9158 27.9524L51.3493 15.5531C51.5795 15.0281 51.4237 14.4139 50.9713 14.0619C48.5096 12.1468 41.6957 7.68927 32.0477 7.66064C22.3537 7.66064 15.5072 12.1339 13.0288 14.0619C12.5765 14.4139 12.4207 15.0281 12.6508 15.5531L18.0843 27.9524C18.2837 28.4079 18.734 28.7021 19.2312 28.7021ZM31.9982 22.8543C33.3243 22.8543 34.6106 23.1296 35.718 23.6504C37.029 24.2669 37.9807 25.1721 38.4456 26.1973H25.5521C26.4278 24.268 29.011 22.8543 31.9982 22.8543ZM20.2661 12.6674L21.2435 14.7409C21.457 15.194 21.9073 15.4596 22.3771 15.4596C22.556 15.4596 22.7378 15.4211 22.9102 15.3398C23.536 15.0448 23.8041 14.2985 23.5091 13.6729L22.6013 11.747C24.9313 10.9418 27.666 10.3284 30.7476 10.1946V12.3365C30.7476 13.0283 31.3083 13.589 32.0001 13.589C32.6918 13.589 33.2526 13.0283 33.2526 12.3365V10.1949C36.3168 10.3279 39.039 10.9349 41.3606 11.7336L40.5503 13.7866C40.2965 14.43 40.6121 15.1575 41.2556 15.4115C41.4065 15.4711 41.562 15.4993 41.715 15.4993C42.2141 15.4993 42.686 15.1988 42.8803 14.7064L43.6921 12.6495C45.841 13.601 47.5193 14.651 48.6553 15.4605L43.9502 26.1974H41.093C40.5901 24.1956 39.0482 22.4485 36.7842 21.3838C35.3456 20.7071 33.6906 20.3494 31.9983 20.3494C30.2201 20.3494 28.5637 20.7365 27.1562 21.4095L25.433 17.7531C25.138 17.1275 24.3921 16.8591 23.766 17.1541C23.1403 17.4491 22.8721 18.1954 23.167 18.821L25.0422 22.7999C23.9825 23.7421 23.2312 24.9048 22.9077 26.1975H20.05L15.3448 15.4605C16.4748 14.655 18.1383 13.6136 20.2661 12.6674Z" stroke="white"/>
<path d="M19.2315 33.712H44.769C45.4606 33.712 46.0215 33.1513 46.0215 32.4595C46.0215 31.7678 45.4607 31.207 44.769 31.207H19.2315C18.5399 31.207 17.979 31.7678 17.979 32.4595C17.979 33.1513 18.5399 33.712 19.2315 33.712Z" fill="#14213D"/>
<path d="M19.2315 33.712H44.769C45.4606 33.712 46.0215 33.1513 46.0215 32.4595C46.0215 31.7678 45.4607 31.207 44.769 31.207H19.2315C18.5399 31.207 17.979 31.7678 17.979 32.4595C17.979 33.1513 18.5399 33.712 19.2315 33.712Z" stroke="white"/>
<path d="M9.86926 52.7608C9.86926 52.0691 9.30851 51.5083 8.61676 51.5083C7.92513 51.5083 7.36426 52.0691 7.36426 52.7608C7.36426 56.2271 10.1844 59.0472 13.6508 59.0472C14.3424 59.0472 14.9033 58.4864 14.9033 57.7947C14.9033 57.1029 14.3425 56.5422 13.6508 56.5422C11.5656 56.5423 9.86926 54.8459 9.86926 52.7608Z" fill="#14213D"/>
<path d="M9.86926 52.7608C9.86926 52.0691 9.30851 51.5083 8.61676 51.5083C7.92513 51.5083 7.36426 52.0691 7.36426 52.7608C7.36426 56.2271 10.1844 59.0472 13.6508 59.0472C14.3424 59.0472 14.9033 58.4864 14.9033 57.7947C14.9033 57.1029 14.3425 56.5422 13.6508 56.5422C11.5656 56.5423 9.86926 54.8459 9.86926 52.7608Z" stroke="white"/>
<path d="M48.9717 57.7947C48.9717 58.4864 49.5324 59.0472 50.2242 59.0472C53.6906 59.0472 56.5107 56.2271 56.5107 52.7608C56.5107 52.0691 55.9499 51.5083 55.2582 51.5083C54.5664 51.5083 54.0057 52.0691 54.0057 52.7608C54.0057 54.8459 52.3093 56.5423 50.2242 56.5423C49.5324 56.5423 48.9717 57.1029 48.9717 57.7947Z" fill="#14213D"/>
<path d="M48.9717 57.7947C48.9717 58.4864 49.5324 59.0472 50.2242 59.0472C53.6906 59.0472 56.5107 56.2271 56.5107 52.7608C56.5107 52.0691 55.9499 51.5083 55.2582 51.5083C54.5664 51.5083 54.0057 52.0691 54.0057 52.7608C54.0057 54.8459 52.3093 56.5423 50.2242 56.5423C49.5324 56.5423 48.9717 57.1029 48.9717 57.7947Z" stroke="white"/>
</g>
<defs>
<clipPath id="clip0">
<rect width="64" height="64" fill="white"/>
</clipPath>
</defs>
</svg>

<svg width="64" height="64" fill="none" xmlns="http://www.w3.org/2000/svg"><g clip-path="url(#a)"><path d="M32 63.998a1.25 1.25 0 1 0 0-2.5 1.25 1.25 0 0 0 0 2.5Z" fill="#14213D"/><path d="M32 63.998a1.25 1.25 0 1 0 0-2.5 1.25 1.25 0 0 0 0 2.5Z" stroke="#fff"/><path d="M55.234 0H8.768C3.934 0 .002 3.967.002 8.8l2.504 46.468C2.526 60.086 6.451 64 11.273 64h15.114a1.253 1.253 0 0 0 0-2.505H11.273c-3.453 0-6.263-2.843-6.263-6.296L2.506 8.735a6.27 6.27 0 0 1 6.262-6.23h46.466a6.27 6.27 0 0 1 6.262 6.23l-2.504 46.464c0 3.453-2.81 6.296-6.263 6.296H37.615a1.253 1.253 0 0 0 0 2.505H52.73c4.822 0 8.748-3.914 8.767-8.732L64 8.8C64 3.967 60.068 0 55.234 0Z" fill="#14213D"/><path d="M55.234 0H8.768C3.934 0 .002 3.967.002 8.8l2.504 46.468C2.526 60.086 6.451 64 11.273 64h15.114a1.253 1.253 0 0 0 0-2.505H11.273c-3.453 0-6.263-2.843-6.263-6.296L2.506 8.735a6.27 6.27 0 0 1 6.262-6.23h46.466a6.27 6.27 0 0 1 6.262 6.23l-2.504 46.464c0 3.453-2.81 6.296-6.263 6.296H37.615a1.253 1.253 0 0 0 0 2.505H52.73c4.822 0 8.748-3.914 8.767-8.732L64 8.8C64 3.967 60.068 0 55.234 0Z" stroke="#fff"/><path d="M19.231 28.702H44.77c.497 0 .947-.294 1.147-.75l5.433-12.399c.23-.525.075-1.14-.378-1.491-2.461-1.915-9.275-6.373-18.923-6.401-9.694 0-16.54 4.473-19.02 6.4a1.253 1.253 0 0 0-.377 1.492l5.433 12.4c.2.455.65.75 1.147.75Zm12.767-5.848c1.326 0 2.613.276 3.72.796 1.311.617 2.263 1.522 2.728 2.547H25.552c.876-1.929 3.459-3.343 6.446-3.343ZM20.266 12.667l.978 2.074a1.252 1.252 0 1 0 2.265-1.068l-.908-1.926a28.71 28.71 0 0 1 8.147-1.552v2.141a1.252 1.252 0 1 0 2.505 0v-2.141a28.71 28.71 0 0 1 8.108 1.539l-.81 2.053a1.253 1.253 0 0 0 2.33.92l.811-2.058a28.494 28.494 0 0 1 4.963 2.812L43.95 26.197h-2.857c-.503-2.001-2.045-3.748-4.309-4.813-1.438-.677-3.093-1.035-4.786-1.035-1.778 0-3.434.387-4.842 1.06l-1.723-3.656a1.252 1.252 0 0 0-2.266 1.068l1.875 3.979c-1.06.942-1.81 2.105-2.134 3.398H20.05L15.345 15.46a28.463 28.463 0 0 1 4.921-2.793Z" fill="#14213D"/><path d="M19.231 28.702H44.77c.497 0 .947-.294 1.147-.75l5.433-12.399c.23-.525.075-1.14-.378-1.491-2.461-1.915-9.275-6.373-18.923-6.401-9.694 0-16.54 4.473-19.02 6.4a1.253 1.253 0 0 0-.377 1.492l5.433 12.4c.2.455.65.75 1.147.75Zm12.767-5.848c1.326 0 2.613.276 3.72.796 1.311.617 2.263 1.522 2.728 2.547H25.552c.876-1.929 3.459-3.343 6.446-3.343ZM20.266 12.667l.978 2.074a1.252 1.252 0 1 0 2.265-1.068l-.908-1.926a28.71 28.71 0 0 1 8.147-1.552v2.141a1.252 1.252 0 1 0 2.505 0v-2.141a28.71 28.71 0 0 1 8.108 1.539l-.81 2.053a1.253 1.253 0 0 0 2.33.92l.811-2.058a28.494 28.494 0 0 1 4.963 2.812L43.95 26.197h-2.857c-.503-2.001-2.045-3.748-4.309-4.813-1.438-.677-3.093-1.035-4.786-1.035-1.778 0-3.434.387-4.842 1.06l-1.723-3.656a1.252 1.252 0 0 0-2.266 1.068l1.875 3.979c-1.06.942-1.81 2.105-2.134 3.398H20.05L15.345 15.46a28.463 28.463 0 0 1 4.921-2.793Z" stroke="#fff"/><path d="M19.232 33.712h25.537a1.253 1.253 0 0 0 0-2.505H19.232a1.253 1.253 0 0 0 0 2.505Z" fill="#14213D"/><path d="M19.232 33.712h25.537a1.253 1.253 0 0 0 0-2.505H19.232a1.253 1.253 0 0 0 0 2.505Z" stroke="#fff"/><path d="M9.87 52.76a1.253 1.253 0 0 0-2.506 0 6.294 6.294 0 0 0 6.287 6.287 1.253 1.253 0 0 0 0-2.505 3.786 3.786 0 0 1-3.782-3.781Z" fill="#14213D"/><path d="M9.87 52.76a1.253 1.253 0 0 0-2.506 0 6.294 6.294 0 0 0 6.287 6.287 1.253 1.253 0 0 0 0-2.505 3.786 3.786 0 0 1-3.782-3.781Z" stroke="#fff"/><path d="M48.972 57.795c0 .691.56 1.252 1.252 1.252a6.294 6.294 0 0 0 6.287-6.286 1.253 1.253 0 0 0-2.505 0 3.786 3.786 0 0 1-3.782 3.781c-.692 0-1.252.56-1.252 1.253Z" fill="#14213D"/><path d="M48.972 57.795c0 .691.56 1.252 1.252 1.252a6.294 6.294 0 0 0 6.287-6.286 1.253 1.253 0 0 0-2.505 0 3.786 3.786 0 0 1-3.782 3.781c-.692 0-1.252.56-1.252 1.253Z" stroke="#fff"/></g><defs><clipPath id="a"><path fill="#fff" d="M0 0h64v64H0z"/></clipPath></defs></svg>
